X: 1
T: Hole In The Boat, The
M: 6/8
L: 1/8
R: jig
K: Edor
|:F|~E3 FEE|EFA Bdf|edA B/c/dB|AFD FED|
~E3 FEE|EFA Bdf|edA B/c/dB|AFD E2:|
|:A|Bee efe|dBc def|edA B/c/dB|AFD FED|
~E3 FEE|EFA Bdf|edA B/c/dB|AFD E2:|
